X:1225
T:Mulqueen's
Z: id:dc-reel-233
M:C
L:1/8
K:D Major
BAG|F2EG FDDE|FDAG FDDE|F2EG FDDE|FABc d:|!
Acd|e3^d efe=d|cdef g2fg|e3^d efe=d|cABc dAcd|!
e3^d efe=d|cdef gefg|aff2 gece|dfec d|]!
